icons/speech-bubble-cross-outline.svg

<svg xmlns="http://www.w3.org/2000/svg" width="24" height="24" viewBox="0 0 24 24">
  <path d="M15,3 C19.5522847,3 23,6.44771525 23,11 C23,15.5522847 19.5522847,19 15,19 L15,19 L14.492,19 L14.4215793,19.0906275 C13.7103901,19.9663638 12.948642,20.6393906 11.8907103,21.256749 L11.8907103,21.256749 L11.5946555,21.4238497 L11.2369286,21.6140163 L10.9086251,21.7821926 C9.57755795,22.4597178 8,21.4937799 8,20 L8,20 L8,19 C4.27285013,19 1,15.3634999 1,11 C1,6.5377729 4.49099359,3 9,3 L9,3 Z M15,5 L9,5 C5.60156611,5 3,7.6364271 3,11 C3,14.3031668 5.42714987,17 8,17 L8,17 L9,17 C9.55228475,17 10,17.4477153 10,18 L10,18 L10,19.999 L10.3113445,19.8411503 L10.6455572,19.6634269 C11.7740931,19.0468761 12.4641772,18.4017399 13.194037,17.4080341 C13.3824481,17.1515119 13.6817197,17 14,17 L14,17 L15,17 C18.4477153,17 21,14.4477153 21,11 C21,7.55228475 18.4477153,5 15,5 L15,5 Z M10.6128994,8.20970461 L10.7071068,8.29289322 L12,9.585 L13.2928932,8.29289322 C13.6834175,7.90236893 14.3165825,7.90236893 14.7071068,8.29289322 C15.0675907,8.65337718 15.0953203,9.22060824 14.7902954,9.61289944 L14.7071068,9.70710678 L13.415,11 L14.7071068,12.2928932 C15.0976311,12.6834175 15.0976311,13.3165825 14.7071068,13.7071068 C14.3466228,14.0675907 13.7793918,14.0953203 13.3871006,13.7902954 L13.2928932,13.7071068 L12,12.415 L10.7071068,13.7071068 C10.3165825,14.0976311 9.68341751,14.0976311 9.29289322,13.7071068 C8.93240926,13.3466228 8.90467972,12.7793918 9.20970461,12.3871006 L9.29289322,12.2928932 L10.585,11 L9.29289322,9.70710678 C8.90236893,9.31658249 8.90236893,8.68341751 9.29289322,8.29289322 C9.65337718,7.93240926 10.2206082,7.90467972 10.6128994,8.20970461 Z"/>
</svg>

<svg xmlns="http://www.w3.org/2000/svg" viewBox="0 0 24 24">
  <path d="M15 3c4.55 0 8 3.45 8 8s-3.45 8-8 8h-.5l-.08.1a8.85 8.85 0 0 1-2.53 2.16l-.3.16-.35.2-.33.16A2 2 0 0 1 8 20v-1c-3.73 0-7-3.64-7-8 0-4.46 3.5-8 8-8zm0 2H9c-3.4 0-6 2.64-6 6 0 3.3 2.43 6 5 6h1a1 1 0 0 1 1 1v2l.31-.16.34-.18a7.16 7.16 0 0 0 2.54-2.25A1 1 0 0 1 14 17h1c3.45 0 6-2.55 6-6s-2.55-6-6-6zm-4.39 3.21.1.08L12 9.6l1.3-1.3a1 1 0 0 1 1.49 1.32l-.08.1L13.4 11l1.3 1.3a1 1 0 0 1-1.32 1.49l-.1-.08L12 12.4l-1.3 1.3a1 1 0 0 1-1.49-1.32l.08-.1L10.6 11 9.3 9.7a1 1 0 0 1 1.32-1.49z"/>
</svg>
